icons/black/colornote.svg

<svg xmlns="http://www.w3.org/2000/svg" viewBox="0 0 48 48"><defs><style>.a{fill:none;stroke:#000ffd;stroke-linecap:round;stroke-linejoin:round;}</style></defs><path class="a" d="M4.66,12.54H43.58m-38.92,0H43.58m-39,27.32H43.51l-.92,1.84H5.5ZM19,25.85a2.46,2.46,0,0,0,2.85,1.95,2.49,2.49,0,0,0,1.93-2.95l-.52-2.44a2.47,2.47,0,0,0-2.94-1.92,2.41,2.41,0,0,0-1.84,2.93Zm-7.37,4-1.52-7.21,6.3,6.2-1.52-7.21M29,26.3l-1.52-7.21M25,19.6l4.78-1m1.8-.38,1.52,7.22m-.76-3.61,2.35-.49m-3.11-3.12,3.61-.76m-2.09,8,3.61-.76M10.15,33.92l29.33-5.7M30.92,39.86s3-1,4.28-1.59,3.62-2.07,3.62-2.07,1.87-2.93,2.65-4.61,2-5.41,2-5.41M4.62,6.71H43.55V39.86H4.62Z"/></svg>

<?xml version="1.0" encoding="utf-8"?>
<!-- Generator: Adobe Illustrator 25.2.3, SVG Export Plug-In . SVG Version: 6.00 Build 0)  -->
<svg version="1.1" id="Layer_1" xmlns="http://www.w3.org/2000/svg" xmlns:xlink="http://www.w3.org/1999/xlink" x="0px" y="0px"
	 viewBox="0 0 48 48" style="enable-background:new 0 0 48 48;" xml:space="preserve">
<style type="text/css">
	.st0{fill:none;stroke:#000000;stroke-linecap:round;stroke-linejoin:round;}
</style>
<path class="st0" d="M4.7,12.5h38.9 M4.7,12.5h38.9 M4.6,39.9h38.9l-0.9,1.8H5.5L4.6,39.9z M19,25.9c0.3,1.3,1.5,2.2,2.9,2
	c1.3-0.3,2.2-1.6,1.9-2.9c0,0,0,0,0,0l-0.5-2.4c-0.3-1.3-1.6-2.2-2.9-1.9c0,0,0,0,0,0c-1.3,0.3-2.1,1.6-1.9,2.9c0,0,0,0,0,0.1
	L19,25.9z M11.6,29.9l-1.5-7.2l6.3,6.2l-1.5-7.2 M29,26.3l-1.5-7.2 M25,19.6l4.8-1 M31.6,18.2l1.5,7.2 M32.3,21.8l2.3-0.5
	 M31.6,18.2l3.6-0.8 M33.1,25.5l3.6-0.8 M10.1,33.9l29.3-5.7 M30.9,39.9c0,0,3-1,4.3-1.6s3.6-2.1,3.6-2.1s1.9-2.9,2.7-4.6
	s2-5.4,2-5.4 M4.6,6.7h38.9v33.2H4.6V6.7z"/>
</svg>
